dist/svg/plan-status.svg

<!-- Generated by Trend Micro Style Portal -->
<svg version="1.1" xmlns="http://www.w3.org/2000/svg" width="16" height="16" viewBox="0 0 16 16">
  <title>plan-status</title>
  <path fill="rgb(34,34,34)" d="M8 0v8l4.3 4.8c-1.2 1-2.7 1.7-4.3 1.7-3.6 0-6.5-2.9-6.5-6.5 0-3.3 2.4-5.9 5.5-6.4v-1.5c-3.9 0.5-7 3.8-7 7.9 0 4.4 3.6 8 8 8 2.1 0 3.9-0.8 5.3-2.1 1.7-1.4 2.7-3.5 2.7-5.9 0-4.4-3.6-8-8-8z"></path>
</svg>

<svg width="16" height="16" viewBox="0 0 16 16" fill="rgb(34, 34, 34)" xmlns="http://www.w3.org/2000/svg"><title>plan-status</title><path d="M8 0V8L12.3 12.8C11.1 13.8 9.6 14.5 8 14.5C4.4 14.5 1.5 11.6 1.5 8C1.5 4.7 3.9 2.1 7 1.6V0.1C3.1 0.6 0 3.9 0 8C0 12.4 3.6 16 8 16C10.1 16 11.9 15.2 13.3 13.9C15 12.5 16 10.4 16 8C16 3.6 12.4 0 8 0Z" fill="rgb(34, 34, 34)" fill-opacity="1.00"/></svg>
